X:169
T:Miss Well’s Reel TS.169
M:C|
L:1/8
Q:1/2=90
S:Thomas Sands’ MS,1810,Lincolnshire
R:reel
O:England;Lincolnshire
Z:vmp.Ruairidh Greig, 2011
K:G
DF|G2GA B2BG|ABcd e2ef|gfge dBAG|E2F2G2:|
“q. in ms”g2|bgdg b2ag|afdf a2 ga|gfed efef|gfede3f|
gfge dBAG|ABcde3f|gfge dBAG|E2F2G2|]

